X:246
T: DER HIMMEL UNSER HORT
N: F0427
O: Europa, Mitteleuropa, Deutschland
R: Vaterlands -, Heimat - Lied, nationalistisch, Krieg
M: 4/4
L: 1/16
K: G
B4 | d6c2B4A4 | G8z4
G4 | c6B2c4d4 | e8
e8- | e4e3dc4B4 | A4D4
d8- | d6e2B4A4 | G4
G4g8- | g2d2B2G2d4d4 | G8z4

@@@ Tune index: 5677
